!!!COM: Mozart, Wolfgang Amadeus
!!!CDT: 1756/01/27/-1791/12/05/
!!!CNT: German
!!!OTL: Piano Sonata No. 11 in A major
!!!SCT1: K<sup>1</sup> 331
!!!SCT2: K<sup>6</sup> 300i
!!!OMV: Mvmt. 2
!!!OMD: Menuetto and Trio
!!!ODT: 1778-1873///
**kern	**kern	**dynam
*staff2	*staff1	*staff1/2
*>[A,A,B,B,C,C,D,D1,D,D2,A,B]	*>[A,A,B,B,C,C,D,D1,D,D2,A,B]	*>[A,A,B,B,C,C,D,D1,D,D2,A,B]
*>norep[A,B,C,D,D2,A,B]	*>norep[A,B,C,D,D2,A,B]	*>norep[A,B,C,D,D2,A,B]
*>A	*>A	*>A
*clefF4	*clefG2	*clefG2
*k[f#c#g#]	*k[f#c#g#]	*k[f#c#g#]
*A:	*A:	*A:
*M3/4	*M3/4	*M3/4
*MM120	*MM120	*MM120
!! Menuetto
=1-	=1-	=1-
.	(32c#q/LLL	.
.	32eq/JJJ	.
(2AA/ 2A/	(2a/)	f
4EE/) 4E/	4e/)	.
=2	=2	=2
4C#\ (4c#\	(8cc#\L	.
.	16dd\L	.
.	16b\JJ	.
4AA\ 4A\)	4a/)	.
4r	4r	.
=3	=3	=3
4r	(8ee\L	p
.	16ff#\L	.
.	16dd\JJ	.
4r	4cc#\)	.
*clefG2	*	*
4A'/ 4f#'/	4ccc#'\	.
=4	=4	=4
(4B/ 4a/	(4dd#\	.
4e/) 4g#/	4.ee\)	.
4r	.	.
.	8ee#'\	.
=5	=5	=5
2.r	(8gg#\L	>
.	8ff#\	.
.	8een\	.
.	8ddn\	.
.	8cc#\	.
.	8b\J	.
*clefF4	*	*
=6	=6	=6
(8E\L	8a\L	.
8d\	8g#\	.
8B\	8ee\	.
8d\	8dd\J)	.
8B\	4r	.
8d\J	.	.
=7	=7	=7
8E\L	(8b\L	.
8c#\	8a\	.
8A\	8ff#\	.
8c#\	8ee\J)	.
8A\	4r	.
8c#\J	.	.
=8	=8	=8
8D\L	(8cc#\L	f
8B\	8b\	.
8F#\	8ggn\	.
8B\	8ff#\J)	.
8F#\	4r	.
8B\J)	.	.
=9	=9	=9
4D\	4f#/	p
4r	(8ee\L	.
.	8dd\	.
4r	8cc#\	.
.	8b\J	.
=10	=10	=10
4E\ (4d\	8a/L	.
.	8g#/J	.
4A\ 4c#\)	4a/)	.
4r	4r	.
=11	=11	=11
.	32bq/LLL	.
.	32eeq/	.
.	32gg#q/JJJ	.
(8E\L	2.bb\	f
8G#\	.	.
8B\	.	.
8G#\	.	.
8F#\	.	.
8E\J	.	.
=12	=12	=12
8D#\L	(16bb\LL	.
.	16aa\	.
8E\	16gg#\	.
.	16ff#\JJ	.
8F#\	(16ff#\LL)	.
.	16ee\	.
8BB\	16dd#\	.
.	16cc#\JJ	.
8C#\	16b/LL	.
.	16a/	.
8D#\J	16g#/	.
.	16a/JJ	.
=13	=13	=13
8E\L	16g#\LL	.
.	16b\	.
8G#\	16ee\	.
.	16gg#\JJ	.
8B\	2bb\)	.
8G#\	.	.
8F#\	.	.
8E\J	.	.
=14	=14	=14
8D#\L	(16bb\LL	.
.	16aa\	.
8E\	16gg#\	.
.	16ff#\JJ)	.
8F#\	(16ff#\LL	.
.	16ee\	.
8BB\	16dd#\	.
.	16cc#\JJ	.
8C#\	16b/LL	.
.	16a/	.
8D#\J	16g#/	.
.	16a/JJ)	.
=15	=15	=15
4E\)	(16g#/LL	.
.	16b/	.
.	16a/	.
.	16g#/JJ	.
4r	16a\LL	.
.	16b\	.
.	16cc#\	.
.	16dd#\JJ	.
4r	16ee\LL	.
.	16ff#\	.
.	16gg#\	.
.	16aa\JJ	.
=16	=16	=16
2.r	16bb\LL	.
.	16ccc#\	.
.	16ddd#\	.
.	16eee\JJ	.
.	16ddd#\LL	.
.	16ccc#\	.
.	16bb\	.
.	16aa\JJ	.
.	16gg#\LL	.
.	16ff#\	.
.	16ee\	.
.	16dd#\JJ)	.
*clefG2	*	*
=17	=17	=17
*^	*^	*
(4f#/	4A\	2r	8cc#\L	p
.	.	.	16r	.
.	.	.	16ccc#\Jk	.
4g#/	2B\	.	4ee\	.
4a/)	.	8gg#/L	4dd#\	.
.	.	8ff#/J	.	.
=18	=18	=18	=18	=18
4g#/	4e\	4ee/	4ee\	.
*v	*v	*	*	*
*clefF4	*	*	*
*^	*	*	*
2r	4E/	2r	4r	.
.	4r	.	4r	.
*v	*v	*	*	*
*	*v	*v	*
=19:|!|:	=19:|!|:	=19:|!|:
*>B	*>B	*>B
.	(32eq/	.
2.r	4ee\)	f
.	(32f#q/	.
.	4ff#\)	.
.	(32gnq/	.
.	4ggn\)	.
=20	=20	=20
(8F#\L	(4b\	p
8c#\	.	.
8f#\	4a#/)	.
8e\	.	.
8d\	8r	.
8c#\J	16r	.
.	16a#'/	.
=21	=21	=21
8F#\L	4cc#\	>
8d\	.	.
8f#\	4b\	.
8d\	.	.
8c#\	8r	.
8B\J	16r	.
.	16b'\	.
=22	=22	=22
8F#\L	(4ddn\	.
8A#\	.	.
8e\	4cc#\)	.
8c#\	.	.
8B\	8r	.
8A#\J	16r	.
.	16cc#'\	.
=23	=23	=23
4B\)	(8ee\L	f
.	8dd\)	.
4r	(8ffn\	.
.	8ee\)	.
4r	(8ggn\	.
.	8ff\J)	.
=24	=24	=24
(8E\L	(4a/	p
8B\	.	.
8e\	4g#/)	.
8d\	.	.
8c#\	8r	.
8B\J	16r	.
.	16g#'/	.
=25	=25	=25
8E\L	(4b\	.
8c#\	.	.
8e\	4a/)	.
8c#\	.	.
8B\	8r	.
8A\J	16r	.
.	16a'/	.
=26	=26	=26
8E\L	(4cc#\	.
8G#\	.	.
8d\	4b\)	.
8B\	.	.
8A\	8r	.
8G#\J	16r	.
.	16b'\	.
=27	=27	=27
2A\)	(8dd\L	.
.	8ccn\	.
.	8b\	.
.	8a\J	.
4GGn/ 4Gn/	8aa'\L)	.
.	8aa'\J	.
=28	=28	=28
2FFn/ 2Fn/	(8bb\L	f
.	8aa\	.
.	8ggn\	.
.	8ffn\	.
4r	8ee\	.
.	8dd#\J)	.
=29	=29	=29
*^	*	*
(8A/L	2.Fn\	(2cccn\	.
8G#/	.	.	.
8A/	.	.	.
8cn/	.	.	.
8B/	.	4dd#\)	.
8A/J	.	.	.
=30	=30	=30	=30
4G#/)	4E\	4.ee\	.
2r	4r	.	.
.	.	(16ff#\LL	.
.	.	16ee\JJ	.
.	4r	(16ee\LL)	.
.	.	16ddn\	.
.	.	16cc#\	.
.	.	16b\JJ)	.
*v	*v	*	*
=31	=31	=31
.	16c#q/LL	.
.	16eq/JJ	.
(2AA/ 2A/	(2a/	f
4EE/) 4E/	4e/)	.
=32	=32	=32
4C#\ (4c#\	(8cc#\L	.
.	16dd\L	.
.	16b\JJ	.
4AA\ 4A\)	4a/)	.
4r	4r	.
=33	=33	=33
4r	(8ee\L	p
.	16ff#\L	.
.	16dd\JJ	.
4r	4cc#\)	.
*clefG2	*	*
4A'/ 4f#'/	4ccc#'\	.
=34	=34	=34
(4B/ 4a/	(4dd#\	.
4e/) 4g#/	4.ee\)	.
4r	.	.
.	8ee#'\	.
=35	=35	=35
2.r	(8gg#\L	>
.	8ff#\	.
.	8een\	.
.	8ddn\	.
.	8cc#\	.
.	8b\J	.
*clefF4	*	*
=36	=36	=36
8E\L	8a\L	.
(8d\	8g#\	.
8B\	8ee\	.
8d\	8dd\J)	.
8B\	4r	.
8d\J	.	.
=37	=37	=37
8E\L	(8b\L	<
8c#\	8a\	.
8A\	8ff#\	.
8c#\	8ee\J)	.
8A\	4r	.
8c#\J	.	.
=38	=38	=38
8E\L	(8b\L	f
8c#\	8a\	.
8A\	8aa\	.
8c#\	8ggn\J)	.
8A\	4r	.
8c#\J)	.	.
=39	=39	=39
4D\ 4A\ 4d\	8ggn\L	p
.	(8ff#\	.
4r	8ee\	.
.	8dd\	.
4r	8cc#\	.
.	8b\J)	.
=40	=40	=40
*^	*	*
(8.C#/L	4r	(8ee\L	.
.	.	32ff#q/LLL	.
.	.	4eeq/	.
.	.	32ddq/JJJ	.
.	.	16ee\L	.
16D/Jk)	.	16ff#\JJ)	.
(4c#/	2E\	(4a/	.
4B/)	.	4g#/)	.
*v	*v	*	*
=41	=41	=41
.	(32aq/LLL	.
.	32cc#q/JJJ	.
8A\L	4ee\)	f
(8c#\	.	.
8e\	2ee\	.
8c#\	.	.
8B\	.	.
8A\J	.	.
=42	=42	=42
8G#\L	(16ee\LL	.
.	16dd\	.
8A\	16cc#\	.
.	16b\JJ)	.
8B\	16b/LL	.
.	(16a/	.
8E\	16g#/	.
.	16f#/JJ	.
8F#\	16e/LL	.
.	16d/	.
8G#\J	16c#/	.
.	16d/JJ	.
=43	=43	=43
8A\L	16c#/LL	.
.	16e/	.
8c#\	16a/	.
.	16cc#/JJ	.
8e\	4.ee\)	.
8c#\	.	.
8B\	.	.
8A\J	8eee\	.
=44	=44	=44
8G#\L	(16eee\LL	.
.	16ddd\	.
8A\	16ccc#\	.
.	16bb\JJ)	.
8B\	(16bb\LL	.
.	16aa\	.
8E\	16gg#\	.
.	16ff#\JJ	.
8F#\	16ee\LL	.
.	16dd\	.
8G#\J	16cc#\	.
.	16dd\JJ	.
=45	=45	=45
4A\)	16cc#\LL	.
.	16ee\	.
.	16dd\	.
.	16cc#\JJ	.
4F#\ 4A\	16dd\LL	.
.	16ee\	.
.	16ff#\	.
.	16gg#\JJ	.
4D\ 4F#\ 4A\	16aa\LL	.
.	16bb\	.
.	16ccc#\	.
.	16ddd\JJ	.
=46	=46	=46
4C#\ 4E\ 4A\	16eee\LL	.
.	16ddd\	.
.	16ccc#\	.
.	16bb\JJ	.
4r	16aa\LL	.
.	16gg#\	.
.	16ff#\	.
.	16ee\JJ	.
4r	16dd\LL	.
.	16cc#\	.
.	16b\	.
.	16a\JJ)	.
=47	=47	=47
*^	*^	*
(4A/	4D\	(8.ff#\L	2r	.
.	.	32gg#\LL	.	.
.	.	32aa\JJJ	.	.
4c#/	2E\	4a/	.	.
4d/)	.	(8cc#/L)	4g#\	.
.	.	8b/J	.	.
=48	=48	=48	=48	=48
4c#/	4A\	4a\)	4a/	.
4AA/	2r	2r	4r	.
4r	.	.	4r	.
*v	*v	*	*	*
*	*v	*v	*
=49:|!	=49:|!	=49:|!
!! Trio
*>C	*>C	*>C
*k[f#c#]	*k[f#c#]	*k[f#c#]
*M3/4	*M3/4	*M3/4
=	=	=
[2.DD/ [2.D/	(8f#/ 8a/L	p
.	8A/	.
.	8d/ 8f#/	.
.	8A/	.
.	8e/ 8g/	.
.	8A/J	.
=50	=50	=50
4DD/] 4D/]	8f#/ 8a/L	.
.	8A/)	.
4r	(8d/ 8f#/	.
.	8c#/ 8e/	.
4r	8d/ 8f#/	.
.	8e/) 8g/J	.
=51	=51	=51
4r	(8f#/ 8a/L	.
.	8d/	.
4r	8g/ 8b/	.
.	8d/	.
4AA\ 4A\	8g/ 8cc#/	.
.	8e/J	.
=52	=52	=52
*	*^	*
4DD/ 4D/	8f#/ 8dd/L	4r	.
.	8a/J)	.	.
2r	(8ff#/L	8d\ (8f#\L	.
.	8ee/	8c#\ 8e\	.
.	8ff#/	8d\ 8f#\	.
.	8gg/J	8e\ 8g\J)	.
=53	=53	=53	=53
2.r	(4aa/)	(8f#\ 8a\L	.
.	.	8d\	.
.	4bb/	8g\ 8b\	.
.	.	8d\	.
.	4ccc#/)	8g\ 8cc#\	.
.	.	8e\J	.
=54	=54	=54	=54
2.r	4ddd/	8f#\) 8dd\L	.
.	.	8a\	.
.	4r	8f#\ 8dd\	.
.	.	8e\	.
.	4r	8d\ 8b\	.
.	.	8c#\ 8a\J	.
*	*v	*v	*
=55	=55	=55
4E\	8B\ 8g#\L	.
.	(8e\	.
4C#/	8c#\ 8a\)	.
.	8e\	.
4AA/	8a\ 8cc#\	.
.	8e\J	.
=56	=56	=56
*	*^	*
4E\	4r	8g#\ 8b\L	.
.	.	8e\	.
2r	(8ddd/L	8f#\ 8dd\	.
.	8ccc#/	8e\ 8cc#\	.
.	8bb/	8d\ 8b\	.
.	8aa/J)	8c#\ 8a\J	.
=57	=57	=57	=57
2.r	4eee/	(8B\ 8g#\L	.
.	.	8e\	.
.	32ddd#q/	.	.
.	4eee/	8c#\ 8a\	.
.	.	8e\	.
.	32ddd#q/	.	.
.	4eee/	8a\ 8cc#\	.
.	.	8e\J	.
=58	=58	=58	=58
.	(32ddd#q/	.	.
4r	4eee/)	8g#\) 8b\L	.
.	.	8e\J	.
(8AA/L	8cc#/L	[2e\	f
8GG#/	(8b/	.	.
8AA/	8cc#/	.	.
8BB/J	8ddn/J	.	.
=59	=59	=59	=59
4C#/)	8ee/L	4e\]	.
.	8a/)	.	.
4E\	8cc#/	4a\	.
.	8e/	.	.
4EE/	8b/	4g#\	.
.	8e/J	.	.
=60	=60	=60	=60
4AA/	4r	8a\L	.
.	.	(8e\	.
2r	8ccc#/L	8a\ 8cc#\	p
.	(8bb/	8g#\ 8b\	.
.	8ccc#/	8a\ 8cc#\	.
.	8ddd/J	8b\) 8dd\J	.
=61	=61	=61	=61
2.r	4eee/	(8cc#\ 8ee\L	.
.	.	8e\	.
.	4ccc#/	8a\ 8cc#\	.
.	.	8e\	.
.	4bb/	8g#\ 8b\	.
.	.	8e\J	.
=62	=62	=62	=62
4r	4aa/)	8a\L	.
.	.	8e\	.
4D\ 4B\	2r	8f#\	f
.	.	8dd\	.
4E\ 4d\	.	8b\	.
.	.	8g#\J	.
*	*v	*v	*
=63	=63	=63
4A\ 4c#\	8a/L	.
.	8e/	.
4D\ 4B\	8f#/	.
.	8dd/	.
4E\ 4d\	8b/	.
.	8g#/J	.
=64	=64	=64
4A\ 4c#\	8a/L	.
.	8g#/	>
4r	8a/	.
.	8b/)	.
4r	8gn/	.
.	8e/J	.
=65:|!|:	=65:|!|:	=65:|!|:
*>D	*>D	*>D
[2.BBB/ [2.BB/	8f#/ 8a/L	p
.	8B/	.
.	8d#/ 8f#/	.
.	8B/	.
.	8e/ 8g/	.
.	8B/J	.
=66	=66	=66
*	*^	*
4BBB/] 4BB/]	4r	8f#\ 8a\L	.
.	.	8B\	.
2r	8cccn/L	8d#\ 8f#\	.
.	(8bb/	8B\	.
.	8aa/	8e\ 8g\	.
.	8gg/J	8B\J	.
=67	=67	=67	=67
2.r	4ff#/)	8f#\ 8a\L	.
.	.	8B\	.
.	8aa/L	8d#\ 8f#\	.
.	(8gg/	8B\	.
.	8ff#/	8e\ 8g\	.
.	8ee/J	8B\J	.
=68	=68	=68	=68
4r	4dd#/)	4f#\ 4a\	.
8BB\ 8B\L	2r	8b\ 8bb\L	f
8AA\ 8A\	.	8a\ 8aa\	.
8GG\ 8G\	.	8g\ 8gg\	.
8FF#\ 8F#\J	.	8f#\ 8ff#\J	.
*	*v	*v	*
=69	=69	=69
4EE/ 4E/	4e/ 4ee/	.
4EE/ 4E/	4e/ 4ee/	.
4BB\ 4B\	4b\ 4bb\	.
=70	=70	=70
4EE/ 4E/	4e/ 4ee/	.
8BB\ 8B\L	8b\ 8bb\L	.
8AA\ 8A\	8a\ 8aa\	.
8GG\ 8G\	8g\ 8gg\	.
8FF#\ 8F#\J	8f#\ 8ff#\J	.
=71	=71	=71
4EE/ 4E/	4e/ 4ee/	.
4EE/ 4E/	4e/ 4ee/	.
4BB\ 4B\	4b\ 4bb\	.
=72	=72	=72
4EE/ 4E/	4e/ 4ee/	.
4r	8ee'\L	p
.	8dd'\	.
4r	8ee'\	.
.	8ffn'\J	.
*clefG2	*	*
=73	=73	=73
*^	*	*
(8c#/L	2c#\	4gg\	.
8e/	.	.	.
8g/	.	4.gg\	.
8e/	.	.	.
8fn/	4B\	.	.
8d/J	.	8gg\	.
=74	=74	=74	=74
8cn/L	2cn\	(4cccn\	.
8e/	.	.	.
8g/	.	4gg\)	.
8e/	.	.	.
8fn/	4B\	4r	.
8d/J	.	.	.
=75	=75	=75	=75
8cn/L	2cn\	4gg\	.
8e/	.	.	.
8g/	.	4.gg\	<
8e/	.	.	.
8fn/	4B\	.	.
8d/J	.	8gg\	.
=76	=76	=76	=76
8cn/L	2cn\	(4cccn\	.
8e/	.	.	.
8g/	.	4gg\)	.
8e/	.	.	.
8c/	4r	8r	.
8e/J	.	16r	.
.	.	16gg\	.
=77	=77	=77	=77
8B-/L	2B-\	(4eee\	.
8cn/	.	.	.
8e/	.	4gg\)	.
8g/	.	.	.
8e/	4r	8r	.
8c/J	.	16r	.
.	.	16gg\	.
=78	=78	=78	=78
8A/L	2A\	(4eee\	.
8c#/	.	.	.
8e/	.	4gg\)	.
8g/	.	.	.
8e/	4r	8r	.
8c#/J	.	16r	.
.	.	16gg\	.
=79	=79	=79	=79
2A/ 2d/)	2r	(8gg\L	f
.	.	8ffn\	.
.	.	8ee\	.
.	.	8ff\	.
(8e/L	4G#\	8ee\	.
8fn/J	.	8dd\J	.
*v	*v	*	*
=80	=80	=80
4A/ 4e/)	8cc#'\L)	.
.	8gg#\	.
4r	(8aa\	.
.	8gg#\	.
4r	8aa\	.
.	8ee\J	.
=81	=81	=81
2.B-/ 2.d/ 2.g#/	8ggn\L	.
.	8ffn\	.
.	8ee\	.
.	8ff\	.
.	8ee\	.
.	8dd\J	.
=82	=82	=82
4A/ 4c#/ 4a/	8aa\L	.
.	8gg#\	.
4r	8aa\	.
.	8ee\	.
4A/ 4d/ 4fn/	8ffn\	.
.	8dd\J	.
=83	=83	=83
4A/ 4c#/ 4e/	8aa\L	.
.	8gg#\	.
4r	8aa\	.
.	8ee\	.
4A/ 4d/ 4fn/	8ffn\	.
.	8dd\J	.
=84	=84	=84
4A/ 4c#/ 4e/	8a/L	>
.	8g#/	.
4r	8a/	.
.	8g#/	.
4r	8a/	.
.	8g#/J)	.
*clefF4	*	*
=85	=85	=85
[2.DD/ [2.D/	(8f#/ 8a/L	p
.	8A/	.
.	8d/ 8f#/	.
.	8A/	.
.	8e/ 8gn/	.
.	8A/J	.
=86	=86	=86
4DD/] 4D/]	8f#/) 8a/L	.
.	8d/	.
4r	(8b/ 8dd/	.
.	8a/ 8cc#/	.
4r	8g/ 8b/	.
.	8f#/) 8a/J	.
=87	=87	=87
(4BB/	8g\L	.
.	8d\	.
4AA/	8f#\ 8a\	.
.	8d\	.
4GG/)	8g\ 8b\	.
.	8d\J	.
=88	=88	=88
*	*^	*
4D\	4r	8f#\ 8a\L	.
.	.	8d\	.
2r	(8ddd/L	8b\ 8dd\	.
.	8ccc#/	8a\ 8cc#\	.
.	8bb/	8g\ 8b\	.
.	8aa/J)	8f#\ 8a\J	.
=89	=89	=89	=89
2.r	(4gg/	8e\ 8g\L	.
.	.	8d\	.
.	4aa/	8f#\ 8a\	.
.	.	8d\	.
.	4bb/)	8g\ 8b\	.
.	.	8d\J	.
=90	=90	=90	=90
2.r	4aa/	8f#\ 8a\L	.
.	.	8d\	.
.	4r	8g\ 8b\	.
.	.	8f#\ 8a\	.
.	4r	8e\ 8g\	.
.	.	8d\ 8f#\J	.
*	*v	*v	*
=91	=91	=91
(4AA/	8c#\ 8e\L	.
.	8A\	.
4FF#/	8d\ 8a\	.
.	8A\	.
4DD/)	8d\ 8f#\	.
.	8A\J	.
=92	=92	=92
*	*^	*
4AA/	4r	8c#\ 8e\L	.
.	.	8A\J	.
2r	(8bb/L	8g\ (8b\L	.
.	8aa/	8f#\ 8a\	.
.	8gg/	8e\ 8g\	.
.	8ff#/J)	8d\ 8f#\J)	.
=93	=93	=93	=93
.	32gg#q/	.	.
2.r	4aa/	8c#\ (8e\L	.
.	.	8A\	.
.	32gg#q/	.	.
.	4aa/	8f#\ 8a\	.
.	.	8A\	.
.	32gg#q/	.	.
.	4aa/	8d\ 8f#\	.
.	.	8A\J	.
=94	=94	=94	=94
.	32gg#q/	.	.
4r	4aa/	8c#\ 8e\L	.
.	.	8a\J)	.
(8B\L	(8dd/L	[2d\	f
8A#\	8cc#/	.	.
8B\	8dd/	.	.
8G\J)	8b/J)	.	.
=95	=95	=95	=95
4F#\	4a/	8d\L]	.
.	.	8A\	.
4E\	4g/	8d\	.
.	.	8B\	.
4AA/	4e/	8c#\	.
.	.	8A\J	.
=96	=96	=96	=96
4D\	8f#/L	4d\	.
.	8a/J	.	.
2r	8ddd/L	8b\ 8dd\L	p
.	8ccc#/	8a#\ 8cc#\	.
.	8ddd/	8b\ 8dd\	.
.	8bb/J	8g\ 8b\J	.
=97	=97	=97	=97
2.r	(4aa/	8f#\ 8an\L	.
.	.	8d\	.
.	4gg/	8e\ 8g\	.
.	.	8B\	.
.	4ee/)	8c#\ 8e\	.
.	.	8A\J	.
=98	=98	=98	=98
*^	*	*	*
2r	4r	4ff#/	8d\ 8f#\L	.
.	.	.	8a\J	.
.	4GG\	8a/L	4B\	f
.	.	8g/	.	.
4G/	4AA\	8e/	4r	.
.	.	8c#/J	.	.
*	*	*v	*v	*
=99	=99	=99	=99
4F#/	4D\	8d/L	.
.	.	8f#/	.
4d/	4GG\	8a/	.
.	.	8g/	.
4G/	4AA\	8e/	.
.	.	8c#/J	.
*v	*v	*	*
=100	=100	=100
*>D1	*>D1	*>D1
*^	*	*
4F#/	4D\	8d'/L	.
.	.	(8c#/	.
4r	2r	8d/	>
.	.	8e/	.
4r	.	8f#/	.
.	.	8g/J)	.
*v	*v	*	*
=101:|!	=101:|!	=101:|!
*>D2	*>D2	*>D2
4D\ 4F#\	4d/	.
4DD/	4r	.
4r	4r	.
==	==	==
*-	*-	*-
!!!SMS: Alte Mozart-Ausgabe, Band 20, Breitkopf &amp; H&auml;rtel 1877-1883.
!!!ONB: Stich und Druck von Breitkopf &amp; H&auml;rtel in Leipzig
!!!ONB: Ausgegeben 1878
!!!ENC: Craig Stuart Sapp
!!!END: 2009/09/30/
!!!title: @{OTL}, K 331 (300i), @{OMV}
!!!hum2abc: --no-tempo -s 0.63 --spacing 2.9 -p "%gracespace  0 6.0 12.0"
